static/images/boost/boost-pattern.svg

<?xml version="1.0" encoding="UTF-8"?>
<svg width="1300px" height="600px" viewBox="0 0 1300 600" version="1.1" xmlns="http://www.w3.org/2000/svg" xmlns:xlink="http://www.w3.org/1999/xlink">
    <!-- Generator: Sketch 51 (57462) - http://www.bohemiancoding.com/sketch -->
    <title>ev3-pattern</title>
    <desc>Created with Sketch.</desc>
    <defs></defs>
    <g id="Round-1" stroke="none" stroke-width="1" fill="none" fill-rule="evenodd" opacity="0.1">
        <g id="EV3-Pattern" fill="#FFFFFF">
            <path d="M819.238017,24.8817824 C803.785488,75.51947 647.448049,103.204942 644.619335,147.368405 C641.787221,191.535268 803.3979,93.588814 814.957548,119.536719 C826.517196,145.488023 648.05323,276.570675 553.600707,314.888974 C496.68644,337.977202 451.787407,305.347653 517.317011,254.845979 C561.158676,221.060318 540.524705,192.028315 500.184933,211.886232 C459.845162,231.747549 438.381615,180.528405 494.112718,136.75258 C549.843821,92.9801553 836.720285,-32.4239487 819.238017,24.8817824 Z M395.087674,155.266347 C351.810391,219.835179 269.073911,179.554891 321.513914,111.844156 C367.915701,51.9405742 516.956962,-10.1426181 524.239541,23.1975999 C529.587578,47.6833632 446.004523,79.2928142 395.087674,155.266347 Z M39.1807315,24.9450285 C109.633386,-43.4015682 169.145174,-110.013998 211.052298,-107.953399 C254.594772,-105.811192 215.703356,-22.4793488 141.769208,41.4468213 C89.3870027,86.7391929 140.541845,109.722011 190.775315,82.679201 C251.480467,49.9986467 298.800226,71.8661574 220.453011,143.521273 C142.105797,215.17979 23.1434199,267.908679 -41.7470041,254.388974 C-106.634028,240.86927 49.3974204,199.575684 55.5886319,144.878004 C61.6710467,91.1324169 -32.9582717,199.633489 -82.2975692,163.539006 C-130.188511,128.508825 -26.2536759,88.418955 39.1807315,24.9450285 Z M828.757048,228.147622 C820.80129,189.230865 917.905733,66.6150305 1036.98711,34.2881103 C1156.68726,1.79457407 1269.22723,-10.8410455 1274.05509,17.262667 C1278.84894,45.2031639 1202.92925,66.309001 1108.61613,111.526565 C1063.01671,133.387275 1111.26124,151.810254 1140.94574,140.000914 C1239.12795,100.948144 1231.45778,160.627305 1148.56151,202.702966 C1083.78668,235.584139 1028.99735,252.830604 996.538538,260.743168 C949.463572,272.219275 939.651471,241.813541 966.527652,224.655485 C1018.99145,191.162252 993.764223,160.246468 946.801453,186.235176 C917.055759,202.696165 841.629056,291.091097 828.757048,228.147622 Z M784.943602,261.589849 C812.781954,250.446974 820.003334,270.869345 820.003334,287.371138 C820.003334,303.876331 792.161582,310.061528 776.692053,300.778632 C761.222524,291.499136 765.557392,269.345998 784.943602,261.589849 Z M1.53299797,331.980724 C12.1508746,307.406552 131.17785,303.479173 219.687355,224.105311 C251.530785,195.545955 290.564996,230.429922 281.300279,257.200706 C272.038961,283.97149 243.734823,291.027171 199.434172,308.249833 C155.13692,325.475896 211.466405,348.434912 284.557379,313.945383 C326.365906,294.220079 371.162942,327.471888 320.681279,361.716594 C278.485164,390.337156 181.261725,398.542148 183.917044,423.092518 C185.385799,436.727834 255.96425,403.928268 268.78866,433.320705 C279.450735,457.748663 254.186104,485.821772 183.587254,491.520722 C111.662444,497.328483 55.7239478,482.533655 54.8875732,447.200845 C53.9390021,407.199384 138.324432,396.359137 100.408787,383.992144 C62.2823481,371.563944 -17.1800322,375.300905 1.53299797,331.980724 Z M428.731349,246.377801 C442.946316,256.262555 443.388303,268.867572 428.279163,286.35546 C408.692359,309.032249 376.002355,307.978147 366.401047,299.684746 C356.79974,291.391346 378.504679,269.914873 386.790226,257.541079 C395.079174,245.170685 410.429706,233.653773 428.731349,246.377801 Z M427.857916,382.61025 C512.134549,362.463306 559.556305,396.238766 540.68008,419.316793 C520.290901,444.237799 471.485387,444.179993 467.650304,492.971302 C460.483322,584.263314 370.681857,600.418273 408.99869,536.682521 C422.421481,514.352566 402.712281,500.2038 391.159433,528.752956 C384.182846,545.982419 351.098453,569.628301 333.616185,578.370545 C254.269402,618.042174 191.004128,560.403211 247.7552,544.384265 C284.684876,533.962259 317.861065,508.895039 339.05262,451.490699 C350.343676,420.901346 390.839843,391.461305 427.857916,382.61025 Z M176.747342,567.609526 C208.69277,608.450868 110.003975,610.732489 73.5570847,623.000873 C37.1101946,635.269257 112.217307,641.498658 178.290895,640.811792 C244.371283,640.124926 234.372188,690.871424 159.268475,715.731223 C43.8793885,753.920309 -58.9810793,714.262281 29.4366283,688.923036 C62.4122241,679.466723 38.9733379,652.19269 2.37005248,656.12687 C-66.7498427,663.556587 -117.979483,629.441094 -106.348437,602.789322 C-93.2214366,572.710019 -60.7388257,592.958973 -27.8890261,595.20659 C4.96077359,597.457607 -23.4725606,565.2599 -66.0086653,543.08976 C-139.07244,505.009484 -77.9491017,440.240033 -15.2108121,498.793684 C74.1758659,582.220737 152.829071,537.030375 176.747342,567.609526 Z M508.16721,666.620623 C461.000446,762.938319 364.157795,753.475206 377.753981,720.597433 C391.346767,687.719659 335.42527,714.504045 309.521459,708.509266 C283.621048,702.521288 268.260316,657.494142 364.439987,648.826705 C482.936578,638.142874 485.707494,521.256592 525.278889,545.664148 C552.48826,562.441368 525.652878,630.917177 508.16721,666.620623 Z M1215.58503,230.734591 C1294.58502,217.157081 1312.08089,244.359706 1279.19029,266.132008 C1258.79431,279.638111 1179.36933,322.706668 1237.37836,326.926476 C1295.3942,331.146283 1252.15771,386.303007 1184.02719,437.651363 C1115.90006,488.999719 967.059396,516.739596 973.563398,473.436417 C980.0708,430.133237 1155.34226,409.353832 1123.78102,363.653421 C1110.07264,343.802305 1043.03008,426.131051 1013.26739,378.761079 C983.501295,331.391107 1166.06214,239.242212 1215.58503,230.734591 Z M701.404066,311.885124 C726.621098,290.537864 778.190727,321.365239 731.80594,363.668722 C721.069067,373.461667 693.472107,382.839772 709.958205,392.503505 C759.770088,421.698723 911.585665,270.040685 936.700701,319.797688 C948.777133,343.722397 888.228377,397.226561 822.137789,430.651787 C773.349275,455.324569 791.137533,500.528532 863.551928,455.991033 C935.969723,411.450134 948.746534,463.951201 908.631155,498.406727 C868.519177,532.858852 612.234981,652.18657 594.773113,588.416815 C581.183727,538.819628 724.370366,547.905305 706.551509,515.860612 C693.472107,492.347342 593.88914,554.780768 558.639013,514.235255 C524.524452,475.002268 652.224563,449.006759 644.047812,425.483288 C637.591409,406.920897 576.48507,433.076221 575.301906,387.634235 C574.387334,352.413636 640.375924,363.536109 701.404066,311.885124 Z M1055.68348,628.931385 C1071.01361,548.289202 1213.05449,473.111345 1267.55143,452.896394 C1353.30021,421.103326 1442.90109,431.702149 1392.32083,457.714659 C1341.74057,483.733971 1208.78422,569.884686 1277.21733,575.797857 C1310.89671,578.708538 1348.96535,603.694149 1277.21733,662.955069 C1231.67232,700.5763 1072.93795,752.563918 1064.26822,719.32231 C1055.59848,686.080701 1246.35647,628.268321 1187.10648,622.484363 C1127.85648,616.703805 1048.5199,666.641025 1055.68348,628.931385 Z M846.516747,599.985411 C892.799537,576.849578 935.600834,548.830874 984.872134,538.255853 C1049.13018,524.464122 985.752707,611.407114 924.068385,639.612836 C896.440827,652.245055 929.521819,669.08008 956.10561,656.172434 C1028.34661,621.10485 1059.76505,648.04565 985.164525,697.659839 C966.61809,709.99623 909.312835,739.201648 839.730553,748.12411 C769.488692,757.134979 771.314437,731.275483 793.049975,721.581148 C824.308623,707.643202 845.721171,677.424486 761.913723,702.947349 C612.100685,748.569553 523.356588,740.973219 557.460949,702.947349 C589.314579,667.437722 696.703709,674.867439 846.516747,599.985411 Z" id="ev3-pattern"></path>
        </g>
    </g>
</svg>

<svg width="1300" height="600" xmlns="http://www.w3.org/2000/svg"><path d="M819.238 24.882c-15.453 50.637-171.79 78.323-174.619 122.486-2.832 44.167 158.779-53.78 170.339-27.831 11.56 25.951-166.905 157.034-261.357 195.352-56.915 23.088-101.814-9.541-36.284-60.043 43.842-33.786 23.208-62.818-17.132-42.96-40.34 19.862-61.803-31.358-6.072-75.133C549.843 92.98 836.72-32.424 819.238 24.882zm-424.15 130.384c-43.278 64.57-126.014 24.289-73.574-43.422C367.916 51.941 516.957-10.143 524.24 23.198c5.348 24.485-78.235 56.095-129.152 132.068zM39.18 24.945c70.452-68.347 129.964-134.959 171.871-132.898 43.543 2.142 4.651 85.474-69.283 149.4-52.382 45.292-1.227 68.275 49.006 41.232C251.48 50 298.8 71.866 220.453 143.521 142.106 215.18 23.143 267.91-41.747 254.39c-64.887-13.52 91.144-54.813 97.336-109.511 6.082-53.746-88.547 54.755-137.887 18.661-47.89-35.03 56.044-75.12 121.479-138.594zm789.576 203.203c-7.956-38.917 89.149-161.533 208.23-193.86 119.7-32.493 232.24-45.129 237.068-17.025 4.794 27.94-71.126 49.046-165.439 94.264-45.6 21.86 2.645 40.283 32.33 28.474 98.182-39.053 90.512 20.626 7.616 62.702-64.775 32.881-119.565 50.128-152.023 58.04-47.075 11.476-56.888-18.93-30.011-36.088 52.463-33.493 27.236-64.409-19.727-38.42-29.745 16.461-105.172 104.856-118.044 41.913zm-43.813 33.442c27.838-11.143 35.06 9.28 35.06 25.781 0 16.505-27.842 22.69-43.312 13.408-15.47-9.28-11.135-31.433 8.252-39.19zM1.533 331.98c10.618-24.573 129.645-28.5 218.154-107.875 31.844-28.559 70.878 6.325 61.613 33.096-9.261 26.77-37.565 33.826-81.866 51.049-44.297 17.226 12.032 40.185 85.123 5.695 41.809-19.725 86.606 13.527 36.124 47.772-42.196 28.62-139.42 36.825-136.764 61.376 1.469 13.635 72.047-19.165 84.872 10.228 10.662 24.428-14.603 52.5-85.202 58.2-71.925 5.807-127.863-8.987-128.7-44.32-.948-40.002 83.437-50.842 45.522-63.209-38.127-12.428-117.589-8.691-98.876-52.011zm427.198-85.602c14.215 9.885 14.657 22.49-.452 39.977-19.587 22.677-52.277 21.623-61.878 13.33-9.601-8.294 12.104-29.77 20.39-42.144 8.288-12.37 23.639-23.887 41.94-11.163zm-.873 136.232c84.277-20.147 131.698 13.629 112.822 36.707-20.39 24.92-69.195 24.863-73.03 73.654-7.167 91.292-96.968 107.447-58.651 43.712 13.422-22.33-6.287-36.48-17.84-7.93-6.976 17.23-40.06 40.875-57.543 49.618-79.347 39.671-142.612-17.968-85.86-33.987 36.929-10.422 70.105-35.489 91.297-92.893 11.29-30.59 51.787-60.03 88.805-68.88zm-251.11 185c31.945 40.84-66.744 43.122-103.19 55.39-36.448 12.27 38.66 18.499 104.733 17.812 66.08-.687 56.081 50.06-19.023 74.92-115.389 38.188-218.25-1.47-129.831-26.809 32.975-9.456 9.536-36.73-27.067-32.796-69.12 7.43-120.35-26.686-108.718-53.338 13.127-30.079 45.61-9.83 78.459-7.582 32.85 2.25 4.416-29.947-38.12-52.117-73.063-38.08-11.94-102.85 50.798-44.296 89.387 83.427 168.04 38.236 191.958 68.816zm331.42 99.01c-47.168 96.318-144.01 86.855-130.414 53.977 13.593-32.877-42.329-6.093-68.233-12.088-25.9-5.988-41.26-51.015 54.919-59.682 118.497-10.684 121.267-127.57 160.839-103.163 27.21 16.777.374 85.253-17.112 120.957zm707.417-435.885c79-13.578 96.496 13.625 63.605 35.397-20.396 13.506-99.82 56.575-41.812 60.794 58.016 4.22 14.78 59.377-53.35 110.725C1115.9 489 967.058 516.74 973.562 473.436c6.508-43.303 181.78-64.082 150.218-109.783-13.708-19.85-80.75 62.478-110.514 15.108-29.766-47.37 152.795-139.519 202.318-148.026zm-514.18 81.15c25.216-21.347 76.786 9.48 30.4 51.784-10.736 9.793-38.333 19.17-21.847 28.835 49.812 29.195 201.628-122.463 226.743-72.706 12.076 23.924-48.473 77.429-114.563 110.854-48.789 24.673-31 69.877 41.414 25.339 72.418-44.54 85.195 7.96 45.08 42.416-40.113 34.452-296.397 153.78-313.859 90.01-13.59-49.597 129.597-40.512 111.779-72.556-13.08-23.514-112.663 38.92-147.913-1.626-34.115-39.233 93.586-65.228 85.409-88.752-6.457-18.562-67.563 7.593-68.746-37.849-.915-35.22 65.074-24.098 126.102-75.749zm354.278 317.046c15.33-80.642 157.371-155.82 211.868-176.035 85.75-31.793 175.35-21.194 124.77 4.819-50.58 26.019-183.537 112.17-115.104 118.083 33.68 2.91 71.748 27.896 0 87.157-45.545 37.621-204.28 89.609-212.949 56.367-8.67-33.241 182.088-91.054 122.838-96.838-59.25-5.78-138.586 44.157-131.423 6.447zm-209.166-28.946c46.283-23.135 89.084-51.154 138.355-61.73 64.258-13.79.88 73.152-60.804 101.358-27.627 12.632 5.454 29.467 32.038 16.56 72.24-35.068 103.659-8.127 29.059 41.487-18.547 12.336-75.852 41.542-145.434 50.464-70.242 9.011-68.417-16.849-46.681-26.543 31.259-13.938 52.671-44.157-31.136-18.634-149.813 45.623-238.557 38.026-204.453 0 31.854-35.51 139.243-28.08 289.056-102.962z" fill="#FFF" fill-rule="evenodd" opacity=".1"/></svg>
